papirus/16x16/mimetypes/x-content-blank-dvd.svg

<?xml version="1.0" encoding="UTF-8" standalone="no"?>
<svg
   xmlns:dc="http://purl.org/dc/elements/1.1/"
   xmlns:cc="http://creativecommons.org/ns#"
   xmlns:rdf="http://www.w3.org/1999/02/22-rdf-syntax-ns#"
   xmlns:svg="http://www.w3.org/2000/svg"
   xmlns="http://www.w3.org/2000/svg"
   xmlns:sodipodi="http://sodipodi.sourceforge.net/DTD/sodipodi-0.dtd"
   xmlns:inkscape="http://www.inkscape.org/namespaces/inkscape"
   id="svg2"
   height="16px"
   width="16px"
   version="1.1"
   viewBox="0 0 16 16"
   inkscape:version="0.91 r"
   sodipodi:docname="x-content-blank-dvd.svg">
  <defs
     id="defs11" />
  <sodipodi:namedview
     pagecolor="#ffffff"
     bordercolor="#666666"
     borderopacity="1"
     objecttolerance="10"
     gridtolerance="10"
     guidetolerance="10"
     inkscape:pageopacity="0"
     inkscape:pageshadow="2"
     inkscape:window-width="1535"
     inkscape:window-height="876"
     id="namedview9"
     showgrid="false"
     inkscape:zoom="19.88"
     inkscape:cx="8"
     inkscape:cy="8"
     inkscape:window-x="65"
     inkscape:window-y="24"
     inkscape:window-maximized="1"
     inkscape:current-layer="svg2" />
  <metadata
     id="metadata17">
    <rdf:RDF>
      <cc:Work
         rdf:about="">
        <dc:format>image/svg+xml</dc:format>
        <dc:type
           rdf:resource="http://purl.org/dc/dcmitype/StillImage" />
      </cc:Work>
    </rdf:RDF>
  </metadata>
  <path
     style="fill-opacity:0.30196001"
     d="M 8 4 C 5.79168 4 4 5.79168 4 8 C 4 10.20832 5.79168 12 8 12 C 10.20832 12 12 10.20832 12 8 C 12 5.79168 10.208 4 8 4 z M 8 7 C 8.5520667 7 9 7.4479333 9 8 C 9 8.5520667 8.5520667 9 8 9 C 7.4479333 9 7 8.5520667 7 8 C 7 7.4479333 7.4479333 7 8 7 z "
     id="path4158" />
  <path
     style="fill:#d1d1d1"
     d="M 8 1 C 4.12088 1 1 4.12088 1 8 C 1 11.87912 4.12088 15 8 15 C 11.87912 15 15 11.87912 15 8 C 15 4.12088 11.878933 1 8 1 z M 8 5 C 9.6562 5 11 6.3438 11 8 C 11 9.6562 9.6562 11 8 11 C 6.3438 11 5 9.6562 5 8 C 5 6.3438 6.3438 5 8 5 z "
     id="path4153" />
  <path
     style="fill:#ffffff;fill-opacity:1;opacity:0.2"
     d="M 8 1 C 4.12088 1 1 4.12088 1 8 C 1 8.0843203 1.0087938 8.1664205 1.0117188 8.25 C 1.1433544 4.4885395 4.2052003 1.5 8 1.5 C 11.794617 1.5 14.856638 4.4885395 14.988281 8.25 C 14.991206 8.1664205 15 8.0843203 15 8 C 15 4.12088 11.878933 1 8 1 z M 5.0253906 8.25 C 5.0183262 8.3339496 5 8.4142315 5 8.5 C 5 10.1562 6.3438 11.5 8 11.5 C 9.6562 11.5 11 10.1562 11 8.5 C 11 8.4142315 10.981674 8.3339496 10.974609 8.25 C 10.845259 9.7871282 9.5704315 11 8 11 C 6.4295685 11 5.1547411 9.7871282 5.0253906 8.25 z "
     id="path4161" />
  <path
     style="fill:#000000;fill-opacity:1;opacity:0.3"
     d="M 8 4.5 C 6.3438 4.5 5 5.8438 5 7.5 C 5 7.5857685 5.0183262 7.6660504 5.0253906 7.75 C 5.1547411 6.2128718 6.4295685 5 8 5 C 9.5704315 5 10.845259 6.2128718 10.974609 7.75 C 10.981674 7.6660504 11 7.5857685 11 7.5 C 11 5.8438 9.6562 4.5 8 4.5 z M 1.0117188 7.75 C 1.0087938 7.8335795 1 7.9156797 1 8 C 1 11.87912 4.12088 15 8 15 C 11.87912 15 15 11.87912 15 8 C 15 7.9156797 14.991206 7.8335795 14.988281 7.75 C 14.856646 11.51146 11.7948 14.5 8 14.5 C 4.2052003 14.5 1.1433544 11.51146 1.0117188 7.75 z "
     id="path4166" />
</svg>

<?xml version="1.0" encoding="UTF-8" standalone="no"?>
<svg id="svg2" xmlns:rdf="http://www.w3.org/1999/02/22-rdf-syntax-ns#" xmlns="http://www.w3.org/2000/svg" height="16px" width="16px" version="1.1" xmlns:cc="http://creativecommons.org/ns#" viewBox="0 0 16 16" xmlns:dc="http://purl.org/dc/elements/1.1/">
 <metadata id="metadata17">
  <rdf:RDF>
   <cc:Work rdf:about="">
    <dc:format>image/svg+xml</dc:format>
    <dc:type rdf:resource="http://purl.org/dc/dcmitype/StillImage"/>
   </cc:Work>
  </rdf:RDF>
 </metadata>
 <path id="path4158" fill-opacity=".30196" d="m8 4c-2.2083 0-4 1.7917-4 4 0 2.208 1.7917 4 4 4 2.208 0 4-1.792 4-4 0-2.2083-1.792-4-4-4zm0 3c0.5521 0 1 0.4479 1 1s-0.4479 1-1 1-1-0.4479-1-1 0.4479-1 1-1z"/>
 <path id="path4153" fill="#d1d1d1" d="m8 1c-3.8791 0-7 3.1209-7 7 0 3.879 3.1209 7 7 7 3.879 0 7-3.121 7-7 0-3.8791-3.121-7-7-7zm0 4c1.6562 0 3 1.3438 3 3s-1.3438 3-3 3-3-1.3438-3-3 1.3438-3 3-3z"/>
 <path id="path4161" opacity=".2" d="m8 1c-3.8791 0-7 3.1209-7 7 0 0.0843 0.0088 0.1664 0.0117 0.25 0.1317-3.7615 3.1935-6.75 6.9883-6.75 3.795 0 6.857 2.9885 6.988 6.75 0.003-0.0836 0.012-0.1657 0.012-0.25 0-3.8791-3.121-7-7-7zm-2.9746 7.25c-0.0071 0.0839-0.0254 0.1642-0.0254 0.25 0 1.656 1.3438 3 3 3s3-1.344 3-3c0-0.0858-0.018-0.1661-0.025-0.25-0.13 1.5371-1.4046 2.75-2.975 2.75s-2.8453-1.2129-2.9746-2.75z" fill="#fff"/>
</svg>
